X: 3404
T: COME LASSES AND LADS
%R: jig
B: James Kerr "Merry Melodies" v.3 p.44 #404
Z: 2016 John Chambers <jc:trillian.mit.edu>
M: 6/8
L: 1/8
K: G
uG |\
GAG g2g | agf e2g | ded d2B | d3- d2B |\
B2e e^de | B2e e2f | gfe f2^d | e3- e2 :|
|: d |\
ded g2f | e3-e2e | efe a2g | f3- fga |\
b2g a2f | gfe d2B | cde dgf | g3- g2 :|

%%center HIGHLAND AIRS & MARCHES.

%%sep 1 1 500
%%sep 1 1 500

